www/assets/icons/wb_shade.svg

<svg xmlns="http://www.w3.org/2000/svg" width="24" height="24" viewBox="0 0 24 24" fill='currentColor'><path d="M14 12v2.5l5.5 5.5H22zm0 8h3l-3-3zM8 4l-6 6h2v10h8V10h2zm1 10H7v-4h2z"/></svg>

<svg width="24" height="24" viewBox="0 0 24 24" xmlns="http://www.w3.org/2000/svg" fill='currentColor'><path d="M14 12V14.5L19.5 20H22L14 12ZM14 20H17L14 17V20ZM8 4L2 10H4V20H12V10H14L8 4ZM9 14H7V10H9V14Z"/></svg>
